X: 1
T: Lady of the Lake
R: reel
Z: 2010 John Chambers <jc:trillian.mit.edu>
B: Portland Collection v.1 1997 p.122
M: C|
L: 1/8
K: D
fg \
| "D"a2fg a2fg | afaf d2ef | "G"gfga gfe2 | "A7"fe-ef e2fg |
| "D"a2fg a2fg | afaf d2ef | "G"g2fe- edB2 | "A7"A6 :|
|: A2- \
| "A7"ABcB A2AB | cBcd e2cA | "G"G2B2 G2E2 | "A7"ABcB A2A2- |
| "A7"ABcB A2AB | cBcd e2ef | "G"g2fe- edB2 | "A7"A6 :|
